X:1
T:Title
%%score { ( 1 5 ) | ( 2 3 4 ) }
L:1/8
M:6/8
K:Db
V:1 treble nm="Grand Piano"
V:5 treble 
V:2 bass 
V:3 bass 
V:4 bass 
V:1
 z3 z2[Q:1/4=60] F/G/ | .[A,FA]3 [_F=G]2 [=FA] | [Fd]3- [Fd]2 F | A>AA B2 F | %4
[M:5/8] G-G- G3[K:bass] |[M:1/8] E/[K:treble]F/ |[M:3/4] G>G G F2 G | [Gc]4- [Gc][CE] | %8
 F>F F =G2 E |[M:5/8] A-A- A3 |[M:1/8] D/E/ |[M:3/4] F2 F F2 F | G4[K:bass] z2[K:treble] | %13
 G<G GG/G/- G=G |[M:5/8] A-A- A3 |[M:1/8] A |[M:3/4] B>B B B2 B | c6 | d<d G F2[K:bass] [G,CE] | %19
[M:5/8] [F,D]-[F,D]- [F,D]3 |] %20
V:2
 z3 z2 D/E/ | z z/[K:treble] A/A[K:bass] .B,3 | D,2 A,, z2 D | F3 F2 [D,_C] |[M:5/8] C-C- C3 | %5
[M:1/8] z |[M:3/4] z6 | z6 | z2 z .B,3 |[M:5/8] z B,A, G,E, |[M:1/8] z |[M:3/4] [D,D-]2 D4 | C6 | %13
 C6 |[M:5/8] [A,D]-[A,D]- [A,D]3 |[M:1/8] [D,F,D] |[M:3/4] D3 E3- | E6 | D6 |[M:5/8] D,-D,- D,3 |] %20
V:3
 x6 | z3[K:treble][K:bass] z2 A,- | A,6- | A,6- |[M:5/8] A,-A,- A,3 |[M:1/8] x | %6
[M:3/4] [E,C-]2 C4 | x6 | D6 |[M:5/8] A,,-A,,- A,,3 |[M:1/8] x | %11
[M:3/4] A,2- [A,,A,-] [D,A,-]2 [=D,A,-_C] | [E,A,-]2 A,- [E,A,-]2 [A,-C] | %13
 [E,A,-]2 [A,,A,-] [E,A,]2 [_F,B,D] |[M:5/8] F,2 z z2 |[M:1/8] x |[M:3/4] G,2 E, =G,2 E, | %17
 A,2 z2 z [G,E] | [F,A,]2 [G,B,] A,2 A,, |[M:5/8] x5 |] %20
V:4
 x6 | D,6[K:treble][K:bass] | z3 D,3- | D,6 |[M:5/8] E,2 z z2 |[M:1/8] x | %6
[M:3/4] A,2- [A,,A,-] [E,A,-]2 [A,,A,-] | [E,A,-]2 [A,,A,-] [E,A,-]2 [A,,A,-] | %8
 [D,A,]2 [B,,B,] E,2- [E,=G,] |[M:5/8] x5 |[M:1/8] x |[M:3/4] x6 | x6 | x6 |[M:5/8] x5 |[M:1/8] x | %16
[M:3/4] x6 | x6 | x6 |[M:5/8] x5 |] %20
V:5
 x6 | x6 | x6 | x6 |[M:5/8] z2 A,,[K:bass] E,2 |[M:1/8] x/[K:treble] x/ |[M:3/4] x6 | x6 | x6 | %9
[M:5/8] [A,C]GF EC |[M:1/8] x |[M:3/4] x6 | z2[K:bass] A,, E2[K:treble] E | x6 | %14
[M:5/8] z2 A,, F,2 |[M:1/8] x |[M:3/4] x6 | z2 B, A,2 c/c/ | x5[K:bass] x |[M:5/8] x5 |] %20

